package/converter/svg/solid/id-card.svg

<svg xmlns="http://www.w3.org/2000/svg" viewBox="0 0 576 512"><!-- Font Awesome Pro 6.0.0-alpha2 by @fontawesome - https://fontawesome.com License - https://fontawesome.com/license (Commercial License) --><path d="M528 32H48C21.49 32 0 53.492 0 80V96H576V80C576 53.492 554.51 32 528 32ZM0 432C0 458.508 21.49 480 48 480H528C554.51 480 576 458.508 576 432V128H0V432ZM368 192H496C504.836 192 512 199.164 512 208S504.836 224 496 224H368C359.164 224 352 216.836 352 208S359.164 192 368 192ZM368 256H496C504.836 256 512 263.164 512 272S504.836 288 496 288H368C359.164 288 352 280.836 352 272S359.164 256 368 256ZM368 320H496C504.836 320 512 327.164 512 336S504.836 352 496 352H368C359.164 352 352 344.836 352 336S359.164 320 368 320ZM176 192C211.346 192 240 220.656 240 256S211.346 320 176 320S112 291.344 112 256S140.654 192 176 192ZM112 352H240C266.51 352 288 373.492 288 400C288 408.836 280.836 416 272 416H80C71.164 416 64 408.836 64 400C64 373.492 85.49 352 112 352Z"/></svg>

<svg xmlns="http://www.w3.org/2000/svg" viewBox="0 0 576 512"><!--! Font Awesome Pro 6.6.0 by @fontawesome - https://fontawesome.com License - https://fontawesome.com/license (Commercial License) Copyright 2024 Fonticons, Inc. --><path d="M0 96l576 0c0-35.3-28.7-64-64-64L64 32C28.7 32 0 60.7 0 96zm0 32L0 416c0 35.3 28.7 64 64 64l448 0c35.3 0 64-28.7 64-64l0-288L0 128zM64 405.3c0-29.5 23.9-53.3 53.3-53.3l117.3 0c29.5 0 53.3 23.9 53.3 53.3c0 5.9-4.8 10.7-10.7 10.7L74.7 416c-5.9 0-10.7-4.8-10.7-10.7zM176 192a64 64 0 1 1 0 128 64 64 0 1 1 0-128zm176 16c0-8.8 7.2-16 16-16l128 0c8.8 0 16 7.2 16 16s-7.2 16-16 16l-128 0c-8.8 0-16-7.2-16-16zm0 64c0-8.8 7.2-16 16-16l128 0c8.8 0 16 7.2 16 16s-7.2 16-16 16l-128 0c-8.8 0-16-7.2-16-16zm0 64c0-8.8 7.2-16 16-16l128 0c8.8 0 16 7.2 16 16s-7.2 16-16 16l-128 0c-8.8 0-16-7.2-16-16z"/></svg>
